X:1
T:Title
%%score { ( 1 3 ) | ( 2 4 ) }
L:1/8
Q:1/4=100
M:6/8
K:F
V:1 treble nm="Grand Piano"
V:3 treble 
V:2 bass 
V:4 bass 
V:1
 FGA B2 d | c3 A3 | [EG][FA][GB] [FA]2 [EG] | F6 | FGA B2 d | c3 A3 | Gcc =BA[FB] | [Ec]6 | %8
w: W.~A.~Ogden * * * *||||||||
 [Ec][EG][FA] [GB][FA][EG] | [FA]3 [Fc]3 | [FB][Fc][Fd] [CFc]2 [CFA] | [CEG]6 | CFF FGA | %13
w: |||||
 [DB]3 [Fd]3 | [Fc][FA]F EDE | F6 | CAA AGF | E[Ec][Ec] [Ec]3 | C[EB][EB] [EB][FA][EG] | Fcc c3 | %20
w: |||||||
 CAA AGF | D[Fd][Fd] [Fd]3[Q:1/4=97][Q:1/4=94][Q:1/4=91][Q:1/4=88][Q:1/4=84][Q:1/4=81][Q:1/4=78] | %22
w: ||
 [Fc][FA]F EDE | F6 |] %24
w: ||
V:2
 [F,A,][F,B,F][F,CF] [F,DF]2 [F,B,F] | [F,A,F]3 [F,CF]3 | [C,B,][C,A,][C,G,] [C,C]2 [C,B,] | %3
 [F,A,]6 | [F,A,][F,B,F][F,CF] [F,DF]2 [F,B,F] | [F,A,F]3 [F,CF]3 | %6
 [G,CE][G,E][G,E] [G,,G,]2 [G,,G,] | [C,G,]6 | [C,G,][C,C][C,C] [C,C]2 [C,C] | [F,C]3 [F,A,]3 | %10
 [D,B,][C,A,][B,,B,] A,,2 F,, | C,6 | [F,A,][F,A,C][F,A,C] A,[B,E][F,C_E] | [B,,B,]3 [B,,B,]3 | %14
 [C,A,][C,C][C,A,] [C,B,C]2 [C,B,C] | [F,A,C]6 | [F,A,][F,CF][F,CF] [F,CF][F,B,C][F,A,C] | %17
 [C,G,C][C,G,][C,G,] [C,G,]3 | [C,E,][C,G,][C,G,] [C,C][C,C][C,B,] | %19
 [F,A,][F,A,F][F,A,F] [F,A,F]3 | [F,A,][F,CF][F,CF] [F,CF][F,B,E][F,A,] | %21
 [B,,B,][B,,B,][B,,B,] [B,,B,]3 | [C,A,][C,C][C,A,] [C,B,C][C,B,C][C,B,C] | [F,A,C]6 |] %24
V:3
 x6 | x6 | x6 | x6 | x6 | x6 | z3 .F3 | x6 | x6 | x6 | x6 | x6 | x6 | x6 | x6 | x6 | x6 | x6 | x6 | %19
 x6 | x6 | x6 | x6 | x6 |] %24
V:4
 x6 | x6 | x6 | x6 | x6 | x6 | x6 | x6 | x6 | x6 | x6 | x6 | z3 .F,3 | x6 | x6 | x6 | x6 | x6 | %18
 x6 | x6 | x6 | x6 | x6 | x6 |] %24

